static/images/skills/jupyter.svg

<svg xmlns="http://www.w3.org/2000/svg" xml:space="preserve" style="fill-rule:evenodd;clip-rule:evenodd;stroke-linejoin:round;stroke-miterlimit:2" viewBox="0 0 1200 900"><path d="M0 0h1200v900H0z" style="fill:#fac29f"/><path d="M6.648 67.352c0 3.91-.363 5.183-1.296 6.12-1.036.81-2.383 1.255-3.782 1.255l.364 2.234c2.164.023 4.265-.637 5.906-1.856.883-.93 1.539-2 1.93-3.152a7.8 7.8 0 0 0 .347-3.55V53.608H6.648zm25.883-1.762c0 1.676 0 3.172.153 4.469h-3.082l-.207-2.66c-.645.94-1.567 1.718-2.672 2.25a8.1 8.1 0 0 1-3.621.788c-3.004 0-6.579-1.406-6.579-7.148v-9.543h3.473v8.938c0 3.105 1.113 5.183 4.246 5.183a5.5 5.5 0 0 0 1.883-.308 5 5 0 0 0 1.594-.914c.445-.38.805-.848 1.058-1.375a3.64 3.64 0 0 0 .36-1.625V53.633h3.468V65.5zm6.579-6.527c0-2.079 0-3.778-.157-5.317h3.11l.152 2.793c.695-1.012 1.691-1.84 2.887-2.398A8.5 8.5 0 0 1 49 53.363c4.613 0 8.082 3.332 8.082 8.29 0 5.855-4.168 8.761-8.676 8.761a7.6 7.6 0 0 1-3.332-.621c-1.027-.45-1.906-1.121-2.547-1.95v8.938H39.11zm3.417 4.355c.008.406.063.812.157 1.207.293.992.96 1.871 1.898 2.5s2.094.965 3.281.965c3.653 0 5.801-2.57 5.801-6.3 0-3.263-2.02-6.056-5.672-6.056-1.445.102-2.797.653-3.804 1.555-1.004.902-1.598 2.086-1.66 3.336zm20.739-9.688 4.172 9.63a51 51 0 0 1 1.214 3.328c.364-.981.75-2.235 1.22-3.395l3.78-9.563h3.653l-5.18 11.618c-2.59 5.586-4.172 8.468-6.555 10.21-1.199.95-2.664 1.61-4.246 1.922l-.855-2.5a9.8 9.8 0 0 0 3.031-1.453c1.262-.89 2.266-2.023 2.926-3.308.139-.218.236-.461.285-.715a2.4 2.4 0 0 0-.234-.781l-7.043-15.04h3.78zm23.25-4.687v4.691h4.972v2.235h-4.972v8.804c0 2.012.675 3.172 2.59 3.172a9 9 0 0 0 2.019-.203l.156 2.238c-1 .295-2.04.43-3.082.399a5.5 5.5 0 0 1-2.035-.27 4.9 4.9 0 0 1-1.719-.98c-1.054-1.219-1.535-2.734-1.347-4.246v-8.938h-2.953v-2.234h3.003v-3.977zm11.367 13.375c-.07.758.05 1.52.355 2.23a5.2 5.2 0 0 0 1.407 1.899 6.3 6.3 0 0 0 2.203 1.215c.824.265 1.71.367 2.586.308 1.764.038 3.521-.25 5.18-.851l.597 2.234a17.7 17.7 0 0 1-6.344 1.008c-1.27.074-2.539-.09-3.726-.477a9.1 9.1 0 0 1-3.153-1.777c-.89-.781-1.578-1.719-2.008-2.75a6.66 6.66 0 0 1-.492-3.219c0-4.918 3.395-8.804 8.938-8.804 6.215 0 7.77 4.691 7.77 7.687q.045.691 0 1.383H97.804zm10.152-2.234a3.7 3.7 0 0 0-.144-1.79 4.1 4.1 0 0 0-.993-1.57 4.9 4.9 0 0 0-1.656-1.078 5.5 5.5 0 0 0-2.023-.39c-1.422.09-2.758.632-3.739 1.527-.984.89-1.543 2.066-1.57 3.3zm8.425-1.375c0-1.918 0-3.575-.155-5.094h3.11v3.195h.155c.325-.984 1-1.86 1.926-2.5.93-.64 2.067-1.015 3.254-1.074.324-.035.656-.035.984 0v2.793a6 6 0 0 0-1.191 0c-1.176.039-2.297.445-3.148 1.144-.856.7-1.383 1.645-1.489 2.653q-.145.69-.156 1.386v8.692h-3.418V58.832z" style="fill:#4e4e4e;fill-rule:nonzero" transform="translate(301.62 149.994)scale(4.68766)"/><path d="M109.766 7.281a7.7 7.7 0 0 1-1.09 4.282 7.6 7.6 0 0 1-3.262 2.949 7.5 7.5 0 0 1-4.34.62 7.53 7.53 0 0 1-3.953-1.913 7.656 7.656 0 0 1 .645-11.75 7.5 7.5 0 0 1 9.558.535 7.63 7.63 0 0 1 2.438 5.273z" style="fill:#767677;fill-rule:nonzero" transform="translate(301.62 149.994)scale(4.68766)"/><path d="M65.758 96.79c-20.098 0-37.649-7.364-46.766-18.267a49.95 49.95 0 0 0 18.102 24.254 49.26 49.26 0 0 0 28.676 9.215 49.3 49.3 0 0 0 28.675-9.215 49.92 49.92 0 0 0 18.094-24.254C103.406 89.426 85.855 96.79 65.758 96.79m-.008-70.907c20.098 0 37.652 7.367 46.766 18.265a49.95 49.95 0 0 0-18.102-24.253 49.27 49.27 0 0 0-28.672-9.22 49.27 49.27 0 0 0-28.672 9.22 49.9 49.9 0 0 0-18.1 24.253c9.132-10.878 26.682-18.265 46.78-18.265" style="fill:#f37726;fill-rule:nonzero" transform="translate(301.62 149.994)scale(4.68766)"/><path d="M38.164 117.984a9.67 9.67 0 0 1-1.371 5.399 9.52 9.52 0 0 1-9.59 4.504 9.4 9.4 0 0 1-4.98-2.418 9.68 9.68 0 0 1-2.809-4.797 9.73 9.73 0 0 1 .313-5.567 9.63 9.63 0 0 1 3.328-4.453c3.645-2.679 8.726-2.388 12.043.688a9.63 9.63 0 0 1 3.066 6.648z" style="fill:#9e9e9e;fill-rule:nonzero" transform="translate(301.62 149.994)scale(4.68766)"/><path d="M21.285 23.418a5.53 5.53 0 0 1-3.14-.816 5.64 5.64 0 0 1-2.618-5.672 5.6 5.6 0 0 1 1.407-2.95 5.6 5.6 0 0 1 2.789-1.664 5.46 5.46 0 0 1 3.238.184 5.54 5.54 0 0 1 2.586 1.969 5.68 5.68 0 0 1-.399 7.129 5.56 5.56 0 0 1-3.867 1.82z" style="fill:#616262;fill-rule:nonzero" transform="translate(301.62 149.994)scale(4.68766)"/></svg>

<?xml version="1.0" encoding="UTF-8" standalone="no"?>
<!DOCTYPE svg PUBLIC "-//W3C//DTD SVG 1.1//EN" "http://www.w3.org/Graphics/SVG/1.1/DTD/svg11.dtd">
<svg width="100%" height="100%" viewBox="0 0 1200 900" version="1.1" xmlns="http://www.w3.org/2000/svg" xmlns:xlink="http://www.w3.org/1999/xlink" xml:space="preserve" xmlns:serif="http://www.serif.com/" style="fill-rule:evenodd;clip-rule:evenodd;stroke-linejoin:round;stroke-miterlimit:2;">
    <rect x="0" y="0" width="1200" height="900" style="fill:rgb(250,194,159);"/>
    <g transform="matrix(4.96783,0,0,4.96783,282.056,132.059)">
        <g transform="matrix(0.943603,0,0,0.943603,3.93828,3.61013)">
            <path d="M6.648,67.352C6.648,71.262 6.285,72.535 5.352,73.472C4.316,74.282 2.969,74.727 1.57,74.727L1.934,76.961C4.098,76.984 6.199,76.324 7.84,75.105C8.723,74.175 9.379,73.105 9.77,71.953C10.159,70.812 10.277,69.597 10.117,68.403L10.117,53.608L6.648,53.608L6.648,67.352ZM32.531,65.59C32.531,67.266 32.531,68.762 32.684,70.059L29.602,70.059L29.395,67.399C28.75,68.339 27.828,69.117 26.723,69.649C25.594,70.189 24.354,70.459 23.102,70.437C20.098,70.437 16.523,69.031 16.523,63.289L16.523,53.746L19.996,53.746L19.996,62.684C19.996,65.789 21.109,67.867 24.242,67.867C24.883,67.875 25.52,67.771 26.125,67.559C26.708,67.356 27.249,67.046 27.719,66.645C28.164,66.265 28.524,65.797 28.777,65.27C29.021,64.763 29.144,64.207 29.137,63.645L29.137,53.633L32.605,53.633L32.605,65.5L32.531,65.59ZM39.11,59.063C39.11,56.984 39.11,55.285 38.953,53.746L42.063,53.746L42.215,56.539C42.91,55.527 43.906,54.699 45.102,54.141C46.321,53.577 47.657,53.31 49,53.363C53.613,53.363 57.082,56.695 57.082,61.653C57.082,67.508 52.914,70.414 48.406,70.414C47.263,70.46 46.124,70.248 45.074,69.793C44.047,69.343 43.168,68.672 42.527,67.843L42.527,76.781L39.11,76.781L39.11,59.063ZM42.527,63.418C42.535,63.824 42.59,64.23 42.684,64.625C42.977,65.617 43.644,66.496 44.582,67.125C45.52,67.754 46.676,68.09 47.863,68.09C51.516,68.09 53.664,65.52 53.664,61.79C53.664,58.527 51.644,55.734 47.992,55.734C46.547,55.836 45.195,56.387 44.188,57.289C43.184,58.191 42.59,59.375 42.528,60.625L42.527,63.418ZM63.266,53.73L67.438,63.36C67.881,64.455 68.286,65.565 68.652,66.688C69.016,65.707 69.402,64.453 69.872,63.293L73.652,53.73L77.305,53.73L72.125,65.348C69.535,70.934 67.953,73.816 65.57,75.558C64.371,76.508 62.906,77.168 61.324,77.48L60.469,74.98C61.556,74.675 62.581,74.183 63.5,73.527C64.762,72.637 65.766,71.504 66.426,70.219C66.565,70.001 66.662,69.758 66.711,69.504C66.679,69.232 66.6,68.968 66.477,68.723L59.434,53.683L63.214,53.683L63.266,53.73ZM86.516,49.043L86.516,53.734L91.488,53.734L91.488,55.969L86.516,55.969L86.516,64.773C86.516,66.785 87.191,67.945 89.106,67.945C89.785,67.954 90.462,67.886 91.125,67.742L91.281,69.98C90.281,70.275 89.241,70.41 88.199,70.379C87.51,70.417 86.819,70.326 86.164,70.109C85.531,69.902 84.946,69.569 84.445,69.129C83.391,67.91 82.91,66.395 83.098,64.883L83.098,55.945L80.145,55.945L80.145,53.711L83.148,53.711L83.148,49.734L86.516,49.043ZM97.883,62.418C97.813,63.176 97.933,63.938 98.238,64.648C98.556,65.38 99.037,66.03 99.645,66.547C100.27,67.086 101.02,67.5 101.848,67.762C102.672,68.027 103.558,68.129 104.434,68.07C106.198,68.108 107.955,67.82 109.614,67.219L110.211,69.453C108.175,70.172 106.025,70.514 103.867,70.461C102.597,70.535 101.328,70.371 100.141,69.984C98.981,69.61 97.909,69.005 96.988,68.207C96.098,67.426 95.41,66.488 94.98,65.457C94.552,64.441 94.383,63.335 94.488,62.238C94.488,57.32 97.883,53.434 103.426,53.434C109.641,53.434 111.196,58.125 111.196,61.121C111.226,61.582 111.226,62.043 111.196,62.504L97.804,62.504L97.883,62.418ZM108.035,60.184C108.136,59.585 108.086,58.97 107.891,58.394C107.685,57.801 107.345,57.264 106.898,56.824C106.426,56.355 105.862,55.988 105.242,55.746C104.598,55.491 103.912,55.358 103.219,55.356C101.797,55.446 100.461,55.988 99.48,56.883C98.496,57.773 97.937,58.949 97.91,60.183L108.035,60.184ZM116.46,58.809C116.46,56.891 116.46,55.234 116.305,53.715L119.415,53.715L119.415,56.91L119.57,56.91C119.895,55.926 120.57,55.05 121.496,54.41C122.426,53.77 123.563,53.395 124.75,53.336C125.074,53.301 125.406,53.301 125.734,53.336L125.734,56.129C125.338,56.09 124.939,56.09 124.543,56.129C123.367,56.168 122.246,56.574 121.395,57.273C120.539,57.973 120.012,58.918 119.906,59.926C119.809,60.386 119.758,60.848 119.75,61.312L119.75,70.004L116.332,70.004L116.332,58.832L116.46,58.809Z" style="fill:rgb(78,78,78);fill-rule:nonzero;"/>
        </g>
        <g transform="matrix(0.943603,0,0,0.943603,3.93828,3.61013)">
            <path d="M109.766,7.281C109.829,8.784 109.45,10.273 108.676,11.563C107.904,12.846 106.769,13.873 105.414,14.512C104.062,15.147 102.55,15.363 101.074,15.132C99.596,14.902 98.219,14.235 97.121,13.219C94.871,11.132 94.087,7.884 95.137,5C95.646,3.59 96.561,2.361 97.766,1.469C98.968,0.581 100.409,0.072 101.902,0.008C103.902,-0.076 105.856,0.643 107.324,2.004C108.8,3.371 109.677,5.267 109.762,7.277L109.766,7.281Z" style="fill:rgb(118,118,119);fill-rule:nonzero;"/>
        </g>
        <g transform="matrix(0.943603,0,0,0.943603,3.93828,3.61013)">
            <path d="M65.758,96.79C45.66,96.79 28.109,89.426 18.992,78.523C22.372,88.284 28.698,96.76 37.094,102.777C45.455,108.767 55.485,111.99 65.77,111.992C76.054,111.988 86.084,108.765 94.445,102.777C102.839,96.76 109.163,88.284 112.539,78.523C103.406,89.426 85.855,96.79 65.758,96.79ZM65.75,25.883C85.848,25.883 103.402,33.25 112.516,44.148C109.136,34.388 102.81,25.912 94.414,19.895C86.055,13.905 76.026,10.68 65.742,10.675C55.458,10.68 45.429,13.905 37.07,19.895C28.673,25.91 22.347,34.387 18.97,44.148C28.102,33.27 45.652,25.883 65.75,25.883Z" style="fill:rgb(243,119,38);fill-rule:nonzero;"/>
        </g>
        <g transform="matrix(0.943603,0,0,0.943603,3.93828,3.61013)">
            <path d="M38.164,117.984C38.246,119.879 37.77,121.757 36.793,123.383C34.812,126.686 31.01,128.472 27.203,127.887C25.338,127.599 23.603,126.756 22.223,125.469C20.838,124.18 19.861,122.511 19.414,120.672C18.973,118.826 19.082,116.89 19.727,115.105C20.374,113.326 21.532,111.777 23.055,110.652C26.7,107.973 31.781,108.264 35.098,111.34C36.955,113.065 38.057,115.456 38.164,117.988L38.164,117.984Z" style="fill:rgb(158,158,158);fill-rule:nonzero;"/>
        </g>
        <g transform="matrix(0.943603,0,0,0.943603,3.93828,3.61013)">
            <path d="M21.285,23.418C20.18,23.466 19.086,23.182 18.145,22.602C16.21,21.416 15.174,19.171 15.527,16.93C15.693,15.829 16.183,14.802 16.934,13.98C17.679,13.162 18.649,12.583 19.723,12.316C20.796,12.048 21.925,12.112 22.961,12.5C24,12.883 24.901,13.569 25.547,14.469C27.113,16.632 26.945,19.623 25.148,21.598C24.154,22.695 22.761,23.351 21.281,23.418L21.285,23.418Z" style="fill:rgb(97,98,98);fill-rule:nonzero;"/>
        </g>
    </g>
</svg>
